icons/fsharp.svg

<?xml version="1.0" encoding="UTF-8" standalone="no"?>
<!-- Created with Inkscape (http://www.inkscape.org/) -->

<svg
   xmlns:dc="http://purl.org/dc/elements/1.1/"
   xmlns:cc="http://creativecommons.org/ns#"
   xmlns:rdf="http://www.w3.org/1999/02/22-rdf-syntax-ns#"
   xmlns:svg="http://www.w3.org/2000/svg"
   xmlns="http://www.w3.org/2000/svg"
   xmlns:sodipodi="http://sodipodi.sourceforge.net/DTD/sodipodi-0.dtd"
   xmlns:inkscape="http://www.inkscape.org/namespaces/inkscape"
   id="svg2"
   version="1.1"
   inkscape:version="0.92.1 r15371"
   width="533.33331"
   height="533.33331"
   viewBox="0 0 500 500"
   sodipodi:docname="fsharp.svg">
  <metadata
     id="metadata8">
    <rdf:RDF>
      <cc:Work
         rdf:about="">
        <dc:format>image/svg+xml</dc:format>
        <dc:type
           rdf:resource="http://purl.org/dc/dcmitype/StillImage" />
        <dc:title></dc:title>
      </cc:Work>
    </rdf:RDF>
  </metadata>
  <defs
     id="defs6" />
  <sodipodi:namedview
     pagecolor="#ffffff"
     bordercolor="#666666"
     borderopacity="1"
     objecttolerance="10"
     gridtolerance="10"
     guidetolerance="10"
     inkscape:pageopacity="0"
     inkscape:pageshadow="2"
     inkscape:window-width="1366"
     inkscape:window-height="705"
     id="namedview4"
     showgrid="false"
     inkscape:zoom="0.6675088"
     inkscape:cx="56.999124"
     inkscape:cy="242.69641"
     inkscape:window-x="-8"
     inkscape:window-y="-8"
     inkscape:window-maximized="1"
     inkscape:current-layer="svg2"
     showguides="true"
     inkscape:guide-bbox="true" />
  <path
     style="fill:#378bba;fill-opacity:1;fill-rule:nonzero;stroke:none;stroke-width:14.7062149;stroke-miterlimit:4;stroke-dasharray:none;stroke-opacity:1"
     d="M 235.90577,36.659303 21.962752,250.60233 235.90577,464.54535 V 380.18446 L 106.20948,250.48816 235.90577,120.79187 Z"
     id="rect4482"
     inkscape:connector-curvature="0" />
  <path
     style="fill:#378bba;fill-opacity:1;fill-rule:nonzero;stroke:none;stroke-width:15.00570774;stroke-miterlimit:4;stroke-dasharray:none;stroke-opacity:1"
     d="m 235.90577,156.61393 -93.62169,93.61997 93.62169,93.6217 z"
     id="rect4509"
     inkscape:connector-curvature="0" />
  <path
     inkscape:connector-curvature="0"
     style="fill:#30b9db;fill-opacity:1;fill-rule:nonzero;stroke:none;stroke-width:14.70621395;stroke-miterlimit:4;stroke-dasharray:none;stroke-opacity:1"
     d="M 263.41702,36.640323 477.36005,250.58336 263.41702,464.52637 V 380.16549 L 393.11333,250.46919 263.41702,120.77288 Z"
     id="rect4482-5" />
</svg>

<svg width="533.33" height="533.33" version="1.1" viewBox="0 0 500 500" xmlns="http://www.w3.org/2000/svg">
<g transform="translate(.3386 -.59284)">
<path d="m235.91 36.659-213.94 213.94 213.94 213.94v-84.361l-129.7-129.7 129.7-129.7z" fill="#378bba"/>
<path d="m235.91 156.61-93.622 93.62 93.622 93.622z" fill="#378bba"/>
<path d="m263.42 36.64 213.94 213.94-213.94 213.94v-84.361l129.7-129.7-129.7-129.7z" fill="#30b9db"/>
</g>
</svg>
